Obsidian-SemiLight/actions/16s/draw-polygon-star.svg

<svg viewBox="0 0 16 16" xmlns="http://www.w3.org/2000/svg"><path d="m6.984375 2-4.984375 3.8378906 1.9355469 6.1621094 2.2910156-.011719-.3125 1.861328 3.0898437-1.697265 3.0917968 1.691406-.603515-3.564453 2.507812-2.5214845-2.488281-.3652344.488281-1.6015625zm.0019531 1 1.8300781 1.3828125-1.3554687 2.8691406-3.4609375.5136719 2.5117188 2.517578-.1191407.708985-1.84375.007812-1.5488281-4.9296875zm2.3945313 1.8085938 1.6191406 1.2246093-.375 1.2285157-.085938-.0117188zm-.3828125.6914062 1.0800781 2.2753906 2.421875.3554688-1.755859 1.765625.421875 2.4941406-2.1640629-1.183594-2.1621093 1.1875.4179687-2.4960935-1.7578125-1.7636719 2.421875-.359375z" fill="#4d4d4d"/></svg>

<svg xmlns="http://www.w3.org/2000/svg" viewBox="0 0 16 16">
  <defs id="defs3051">
    <style type="text/css" id="current-color-scheme">
      .ColorScheme-Text {
        color:#4d4d4d;
      }
      </style>
  </defs>
 <path style="fill:currentColor;fill-opacity:1;stroke:none" 
     d="M 6.984375 2 L 2 5.8378906 L 3.9355469 12 L 6.2265625 11.988281 L 5.9140625 13.849609 L 9.0039062 12.152344 L 12.095703 13.84375 L 11.492188 10.279297 L 14 7.7578125 L 11.511719 7.3925781 L 12 5.7910156 L 6.984375 2 z M 6.9863281 3 L 8.8164062 4.3828125 L 7.4609375 7.2519531 L 4 7.765625 L 6.5117188 10.283203 L 6.3925781 10.992188 L 4.5488281 11 L 3 6.0703125 L 6.9863281 3 z M 9.3808594 4.8085938 L 11 6.0332031 L 10.625 7.2617188 L 10.539062 7.25 L 9.3808594 4.8085938 z M 8.9980469 5.5 L 10.078125 7.7753906 L 12.5 8.1308594 L 10.744141 9.8964844 L 11.166016 12.390625 L 9.0019531 11.207031 L 6.8398438 12.394531 L 7.2578125 9.8984375 L 5.5 8.1347656 L 7.921875 7.7753906 L 8.9980469 5.5 z "
     class="ColorScheme-Text"
     />
</svg>
